Hatter-kde/actions/16/swap-panels.svg

<svg xmlns="http://www.w3.org/2000/svg" viewBox="0 0 16 16">
  <defs id="defs3051">
    <style type="text/css" id="current-color-scheme">
      .ColorScheme-Text {
        color:#363636;
      }
      </style>
  </defs>
 <path style="fill:currentColor;fill-opacity:1;stroke:none" 
       d="M 2,2 2,14 4,14 4,13 3,13 3,5 6,5 6,9 7,9 7,2 2,2 Z m 6,0 0,7 1,0 0,-4 4,0 0,2 1,0 0,-5 -6,0 z M 12.171875,7.671875 11.464844,8.3789062 12.414062,9.328125 13.085938,10 11,10 l -2,0 0,1 1,0 1,0 2.085938,0 -0.671876,0.671875 -0.949218,0.949219 0.707031,0.707031 0.949219,-0.949219 L 15,10.5 13.121094,8.6210938 12.171875,7.671875 Z m -4.34375,2 L 6.8789062,10.621094 5,12.5 6.8789062,14.378906 7.828125,15.328125 8.5351562,14.621094 7.5859375,13.671875 6.9140625,13 9,13 l 1,0 1,0 0,-1 -2,0 -2.0859375,0 0.671875,-0.671875 L 8.5351562,10.378906 7.828125,9.671875 Z"
     class="ColorScheme-Text"
     />
</svg>

<?xml version="1.0" encoding="UTF-8"?>
<svg viewBox="0 0 16 16" xmlns="http://www.w3.org/2000/svg">
 <defs id="defs3051">
  <style id="current-color-scheme" type="text/css">.ColorScheme-Text {
        color:#363636;
      }</style>
 </defs>
 <path class="ColorScheme-Text" d="m2 2v12h2v-1h-1v-8h3v4h1v-7h-5zm6 0v7h1v-4h4v2h1v-5h-6zm4.1719 5.6719-0.70703 0.70703 1.6211 1.6211h-2.0859-2v1h1 1 2.0859l-1.6211 1.6211 0.70703 0.70703 2.8281-2.8281-2.8281-2.8281zm-4.3438 2-2.8281 2.8281 2.8281 2.8281 0.70703-0.70703-1.6211-1.6211h2.0859 1 1v-1h-2-2.0859l1.6211-1.6211-0.70703-0.70703z" fill="currentColor"/>
</svg>
